X:1
T:Title
%%score { ( 1 4 ) | ( 2 3 ) }
L:1/8
M:6/8
K:Ab
V:1 treble nm="Grand Piano"
V:4 treble 
V:2 bass 
V:3 bass 
V:1
 z3 z2[Q:1/4=100] [CE] | [CE]2 [CA] [CA][DB][Ec] | [Ec]2 [DB] [CA]2 [Ec] | B2 c d2 c | B2 A B3 | %5
[M:1/8] E |[M:3/4] [CE]2 [CA] [CEA]2 [CEA] |[M:7/8] [CA][GB][_Gc] [Fd]3 [Fd] |[M:3/4] c2 B A2 G | %9
 [CA]6 | [Ec]2 [CEA][CEA] [DG][A,CA] | [EB]6 | d2 BB AB | [Ec]6 | [A,CE]2 [A,CA] [CEA]2 [CEA] | %15
[M:7/8] [CA][GB][_Gc] [Fd]3 [Fd] |[M:3/4] c2 B A2 G | [CA]6 |] %18
V:2
 z3 z2 [A,,A,] | [A,,A,]2 [A,,E,] [A,,E,]2 [A,,A,] | [E,A,]2 [E,G,] [A,,A,]2 [A,,A,] | %3
 [E,G,E]2 [E,A,E] [E,B,E]2 [E,A,E] | [E,G,D]2 [E,A,C] [E,G,E]3 |[M:1/8] [E,G,D] | %6
[M:3/4] [A,,A,]2 [A,,A,] A,,2 A,, |[M:7/8] A,A,A, [D,A,]3 [D,A,] | %8
[M:3/4] [E,A,E]2 [E,G,D] [E,A,C]2 [E,B,] | [A,,E,]6 | [A,,A,]2 .A,,2 B,G,, | [E,G,]2 E, .E,3 | %12
 [E,B,E]2 [E,G,E][E,E]- [E,F,E][E,G,E] | [A,,A,]2 A,, A,,2 A,, | A,,2 A,, A,,2 A,, | %15
[M:7/8] A,2 z z z z2 |[M:3/4] [E,A,E]2 [E,G,D] [E,A,C]2 [E,B,] | [A,,E,]6 |] %18
V:3
 x6 | x6 | x6 | x6 | x6 |[M:1/8] x |[M:3/4] x6 |[M:7/8] x7 |[M:3/4] x6 | x6 | z2 z .A,,3 | x6 | %12
 z2 z G, z2 | x6 | x6 |[M:7/8] z B,A, [D,A,]3 [D,A,] |[M:3/4] x6 | x6 |] %18
V:4
 x6 | x6 | x6 | x6 | x6 |[M:1/8] x |[M:3/4] x6 |[M:7/8] x7 |[M:3/4] x6 | x6 | x6 | z2 G, .G,3 | %12
 x6 | z2 A, A,2 [A,CE] | x6 |[M:7/8] x7 |[M:3/4] x6 | x6 |] %18

